src/qt/dogecash/res/img/ic-check-theme-dark.svg

<?xml version="1.0" encoding="UTF-8"?>
<svg width="24px" height="24px" viewBox="0 0 24 24" version="1.1" xmlns="http://www.w3.org/2000/svg" xmlns:xlink="http://www.w3.org/1999/xlink" shape-rendering="crispEdges">
    <!-- Generator: Sketch 52.6 (67491) - http://www.bohemiancoding.com/sketch -->
    <title>Top BarTheme</title>
    <desc>Created with Sketch.</desc>
    <defs>
        <polygon id="path-1" points="0 0.0004 16.938 0.0004 16.938 20.0003579 0 20.0003579"></polygon>
    </defs>
    <g id="Top-BarTheme" stroke="none" stroke-width="1" fill="none" fill-rule="evenodd">
        <g id="Group-3" transform="translate(4.000000, 2.000000)">
            <mask id="mask-2" fill="white">
                <use xlink:href="#path-1"></use>
            </mask>
            <g id="Clip-2"></g>
            <path d="M10.0381,2 C10.3021,2 10.5631,2.013 10.8231,2.038 C7.8791,3.604 6.0381,6.666 6.0381,10 C6.0381,13.335 7.8791,16.397 10.8231,17.962 C10.5631,17.987 10.3021,18 10.0381,18 C5.6221,17.995 2.0431,14.416 2.0381,10 C2.0431,5.584 5.6221,2.005 10.0381,2 M11.1821,19.93 C11.2661,19.92 11.3461,19.9 11.4281,19.893 C11.7281,19.85 12.0351,19.792 12.3341,19.726 C12.4151,19.706 12.4941,19.685 12.5731,19.663 C12.8801,19.582 13.1841,19.488 13.4801,19.379 C13.5421,19.356 13.6041,19.335 13.6651,19.312 C14.0181,19.176 14.3641,19.02 14.7001,18.843 L14.8741,18.751 C15.6251,18.333 16.3181,17.819 16.9381,17.225 L14.3301,16.964 C10.7571,16.601 8.0391,13.592 8.0391,10 C8.0391,6.409 10.7571,3.4 14.3301,3.036 L16.9381,2.776 C16.3171,2.181 15.6231,1.668 14.8721,1.249 L14.6971,1.157 C14.3611,0.981 14.0161,0.825 13.6621,0.689 C13.6011,0.665 13.5391,0.644 13.4771,0.621 C13.1771,0.512 12.8771,0.421 12.5701,0.337 C12.4911,0.316 12.4121,0.294 12.3311,0.275 C12.0311,0.205 11.7311,0.151 11.4251,0.108 C11.3431,0.096 11.2631,0.08 11.1821,0.07 C7.3511,-0.385 3.6021,1.401 1.5441,4.663 C-0.5149,7.923 -0.5149,12.077 1.5441,15.338 C3.6021,18.599 7.3511,20.386 11.1821,19.93" id="Fill-1" fill="#FFFFFF" mask="url(#mask-2)"></path>
        </g>
    </g>
</svg>

<?xml version="1.0" encoding="utf-8"?>
<!-- Generator: Adobe Illustrator 16.0.0, SVG Export Plug-In . SVG Version: 6.00 Build 0)  -->
<!DOCTYPE svg PUBLIC "-//W3C//DTD SVG 1.1//EN" "http://www.w3.org/Graphics/SVG/1.1/DTD/svg11.dtd">
<svg version="1.1" id="Layer_1" shape-rendering="crispEdges"
	 xmlns="http://www.w3.org/2000/svg" xmlns:xlink="http://www.w3.org/1999/xlink" x="0px" y="0px" width="24px" height="24px"
	 viewBox="0 0 24 24" enable-background="new 0 0 24 24" xml:space="preserve">
<title>Top BarTheme</title>
<desc>Created with Sketch.</desc>
<g id="Top-BarTheme">
	<g id="Group-3" transform="translate(4.000000, 2.000000)">
		<g id="Clip-2">
		</g>
		<defs>
			<filter id="Adobe_OpacityMaskFilter" filterUnits="userSpaceOnUse" x="0" y="0" width="16.938" height="20">
				<feColorMatrix  type="matrix" values="1 0 0 0 0  0 1 0 0 0  0 0 1 0 0  0 0 0 1 0"/>
			</filter>
		</defs>
		<mask maskUnits="userSpaceOnUse" x="0" y="0" width="16.938" height="20" id="mask-2">
			<g filter="url(#Adobe_OpacityMaskFilter)">
				<polygon id="path-1" fill="none" points="0,0 16.938,0 16.938,20 0,20 				"/>
			</g>
		</mask>
		<path id="Fill-1" mask="url(#mask-2)" fill="#007BFE" d="M10.038,2c0.265,0,0.524,0.013,0.785,0.038
			C7.879,3.604,6.038,6.666,6.038,10c0,3.335,1.841,6.396,4.785,7.962C10.563,17.986,10.303,18,10.038,18
			c-4.416-0.005-7.995-3.584-8-8C2.043,5.584,5.622,2.005,10.038,2 M11.182,19.93c0.084-0.01,0.164-0.029,0.246-0.037
			c0.301-0.043,0.607-0.101,0.906-0.166c0.081-0.021,0.16-0.041,0.239-0.063c0.307-0.081,0.61-0.175,0.907-0.284
			c0.062-0.023,0.123-0.044,0.185-0.066c0.353-0.137,0.699-0.293,1.035-0.47l0.174-0.092c0.751-0.418,1.444-0.933,2.063-1.526
			l-2.607-0.261C10.758,16.602,8.039,13.592,8.039,10c0-3.591,2.719-6.6,6.291-6.964l2.607-0.26
			c-0.621-0.595-1.314-1.108-2.065-1.527l-0.175-0.092c-0.336-0.176-0.682-0.332-1.035-0.468c-0.061-0.024-0.123-0.045-0.186-0.068
			c-0.299-0.109-0.6-0.2-0.906-0.284c-0.079-0.021-0.158-0.043-0.239-0.062c-0.3-0.07-0.601-0.124-0.905-0.167
			c-0.082-0.012-0.162-0.028-0.244-0.038c-3.831-0.455-7.58,1.331-9.638,4.593c-2.059,3.26-2.059,7.414,0,10.675
			C3.602,18.6,7.351,20.386,11.182,19.93"/>
	</g>
</g>
</svg>
